X:1
T:Title
%%score { ( 1 3 4 ) | ( 2 5 ) }
L:1/8
M:4/4
K:C
V:1 treble nm="Grand Piano"
V:3 treble 
V:4 treble 
V:2 bass 
V:5 bass 
V:1
 z4 z2[Q:1/4=90] [CE][DF] | [EG][EA][EB][Ec] [Ed][Ec][EB][EA] | %2
 [FB]2 [B,F][_B,E] [=B,F]2 [G,B,D][CE] | [B,DF][B,EG][CFA][DFB] [CEc][DB][FA][EB] | %4
 [EG]2 E_E =E2 [EG][Gc] | [Fc][FB][FB][FA] [FB]2 Bd | dccB c2 ce | [Ae][Ad][Ad][Ae] [Af][Af][Ge]d | %8
[M:7/8] c2 [DB] [Fd] [Ec]3 |[M:1/4] [Ge][Gd] |[M:4/4] [Ac]6 z2 | [EG]4 [CE]2 z2 | [DF]6 z2 | %13
 [EG]6 z2 | [Ec]4- [Ec][CA].[Ad][CFA] | [EG]4 [CE]2 z2 | B2 G2 A2 B2 |[M:3/4] [Ec]6 |] %18
V:2
 z4 z2 [C,G,][C,G,] | [C,C][C,C][C,B,][C,A,] [C,G,][C,A,][C,B,][C,C] | %2
 [D,G,]2 [G,,D,][G,,^C,] [G,,D,]2 G,,G,, | G,,G,,G,,G,, G,,[G,,G,][G,,G,][G,,G,] | %4
 [C,G,]2 [C,G,C][C,^F,C] [C,G,C]2 [C,C][E,G,] | %5
 [D,G,][D,G,][D,G,][D,G,] [D,G,]2[K:treble] [G,DF][^G,B,F] | %6
 [A,F][A,E][A,E][A,D] [A,E]2 [A,A][A,CA] | [F,C][F,A,][F,D][E,^C] [D,D][D,D][E,C][F,A,F] | %8
[M:7/8] [G,E]2 [G,,G,] [G,,G,] [C,G,]3 |[M:1/4] [C,C][C,C] | %10
[M:4/4] [F,C]F,F,F, F,[F,CF][F,A,F][F,CF] | [C,C]C,C,C, C,C,C,C, | %12
 G,G,G,G, z[K:treble] E[G,DG][G,B,F] | [C,C]C,C,C, C,2 C,C, | %14
 A,A,A,A, A,A, z/[K:treble] c/[K:bass]F, | C,C,C,C, C,C,C,[C,G,] | %16
 [G,D]2 [G,B,]2 [G,C^F]2 [G,D=F]2 |[M:3/4][K:bass] [C,C]6 |] %18
V:3
 x8 | x8 | x8 | x8 | x8 | x8 | x8 | x8 |[M:7/8] x7 |[M:1/4] x2 |[M:4/4] z CCC CA d/c/A | %11
 z CCC G,G,[CEG][CEA] | B,B,B,B, z GBA | z G,A,B, C2 [CEG][CEG] | x8 | CCCC G,G,[G,EG][EA] | x8 | %17
[M:3/4] x6 |] %18
V:4
 x8 | x8 | x8 | x8 | x8 | x8 | x8 | x8 |[M:7/8] x7 |[M:1/4] x2 |[M:4/4] x8 | x8 | z4 B,2 z2 | x8 | %14
 x8 | x8 | x8 |[M:3/4] x6 |] %18
V:5
 x8 | x8 | x8 | x8 | x8 | x6[K:treble] x2 | x8 | x8 |[M:7/8] x7 |[M:1/4] x2 |[M:4/4] x8 | x8 | %12
 z4 G,2[K:treble] z2 | x8 | z4 z2 .[F,C]2[K:treble][K:bass] | x8 | x8 |[M:3/4][K:bass] x6 |] %18

